static/images/icons/contextual_inquiry.svg

<svg fill="none" height="81" viewBox="0 0 76 81" width="76" xmlns="http://www.w3.org/2000/svg"><g fill="currentColor"><path d="m6.4875.637512h44.4937c1.6112 0 3.0844.591838 4.1658 1.547458 1.1366.99907 1.8374 2.38906 1.8374 3.9311v14.28003l-3.5313 3.4153v-17.69533c0-.51582-.2483-.99907-.6511-1.352-.4524-.40179-1.0979-.65156-1.8208-.65156h-44.4937c-.7228 0-1.36284.24977-1.8208.65156-.40278.35293-.65108.83618-.65108 1.352v68.97333c0 .5158.2483.999.65108 1.352.45244.4018 1.098.6515 1.8208.6515h44.4937c.7229 0 1.3629-.2497 1.8208-.6515.4028-.353.6511-.8362.6511-1.352v-27.9032l3.5313-3.4153v31.3239c0 1.5366-.7063 2.932-1.8374 3.9311-1.0814.9556-2.5546 1.5475-4.1658 1.5475h-44.4937c-1.61113 0-3.08433-.5919-4.16577-1.5475-1.13662-.9991-1.837355-2.3891-1.837355-3.9311v-68.97873c0-1.53661.706245-2.93203 1.837355-3.9311 1.08144-.95562 2.55464-1.547458 4.16577-1.547458z"/><path d="m22.8249 55.8683 36.8133-35.6079.1269-.1249 1.247-1.2271 4.3368-4.2677c.7283-.7167 1.6883-1.0751 2.6429-1.0751.96 0 1.9146.3584 2.6429 1.0751l4.1878 4.1211c.7284.7167 1.0925 1.6615 1.0925 2.6008 0 .9448-.3641 1.8841-1.0925 2.6009l-4.3368 4.2677-1.2469 1.2271-.0111.0109-36.9291 35.7273-.9877.4833-8.1715 1.1728-2.345.3366.3421-2.3022 1.1918-8.0468zm40.6866-34.5057 4.4858 4.4144 4.3368-4.2677c.0386-.0381.0607-.0924.0607-.1467 0-.0542-.0221-.1085-.0607-.1466l-4.1878-4.1211c-.0386-.038-.0938-.0597-.149-.0597s-.1103.0217-.149.0597zm-2.4939 2.4597-35.2794 34.0984-.767 5.1745 5.2473-.7547 35.2849-34.1093z"/></g></svg>

<svg width="76" height="81" viewBox="0 0 76 81" fill="none" xmlns="http://www.w3.org/2000/svg">
<path d="M6.4875 0.637512H50.9812C52.5924 0.637512 54.0656 1.22935 55.147 2.18497C56.2836 3.18404 56.9844 4.57403 56.9844 6.11607V20.3961L53.4531 23.8114V6.11607C53.4531 5.60025 53.2048 5.117 52.802 4.76407C52.3496 4.36228 51.7041 4.11251 50.9812 4.11251H6.4875C5.7647 4.11251 5.12466 4.36228 4.6667 4.76407C4.26392 5.117 4.01562 5.60025 4.01562 6.11607V75.0894C4.01562 75.6052 4.26392 76.0884 4.6667 76.4414C5.11914 76.8432 5.7647 77.0929 6.4875 77.0929H50.9812C51.7041 77.0929 52.3441 76.8432 52.802 76.4414C53.2048 76.0884 53.4531 75.6052 53.4531 75.0894V47.1862L56.9844 43.7709V75.0948C56.9844 76.6314 56.2781 78.0268 55.147 79.0259C54.0656 79.9815 52.5924 80.5734 50.9812 80.5734H6.4875C4.87637 80.5734 3.40317 79.9815 2.32173 79.0259C1.18511 78.0268 0.484375 76.6368 0.484375 75.0948V6.11607C0.484375 4.57946 1.19062 3.18404 2.32173 2.18497C3.40317 1.22935 4.87637 0.637512 6.4875 0.637512Z" fill="currentColor"/>
<path d="M22.8249 55.8683L59.6382 20.2604L59.7651 20.1355L61.0121 18.9084L65.3489 14.6407C66.0772 13.924 67.0372 13.5656 67.9918 13.5656C68.9518 13.5656 69.9064 13.924 70.6347 14.6407L74.8225 18.7618C75.5509 19.4785 75.915 20.4233 75.915 21.3626C75.915 22.3074 75.5509 23.2467 74.8225 23.9635L70.4857 28.2312L69.2388 29.4583L69.2277 29.4692L32.2986 65.1965L31.3109 65.6798L23.1394 66.8526L20.7944 67.1892L21.1365 64.887L22.3283 56.8402L22.8249 55.8683ZM63.5115 21.3626L67.9973 25.777L72.3341 21.5093C72.3727 21.4712 72.3948 21.4169 72.3948 21.3626C72.3948 21.3084 72.3727 21.2541 72.3341 21.216L68.1463 17.0949C68.1077 17.0569 68.0525 17.0352 67.9973 17.0352C67.9421 17.0352 67.887 17.0569 67.8483 17.0949L63.5115 21.3626ZM61.0176 23.8223L25.7382 57.9207L24.9712 63.0952L30.2185 62.3405L65.5034 28.2312L61.0176 23.8223Z" fill="currentColor"/>
</svg>
